ui/src/assets/icons/item-categories/item_cat_gem.svg

<svg xmlns="http://www.w3.org/2000/svg" viewBox="0 0 512 512"><path d="M0 0h512v512H0z"/><path fill="#fff" d="m413.47 20.25-11.47 4L84.97 134.72 78.437 137l.406 6.875L97.78 478.47l.69 12.124 11.468-4 317.03-110.47 6.5-2.28-.374-6.906-18.938-334.563-.687-12.125zm-31.533 30.375-43.375 64.75-180.75 63.375-36.78-24.53c74.22 12.515 196.82-52.49 257.124-102.282l3.78-1.313zm16.032 19.688 15.78 279.125-49.313-32.875-4.187-76.47c18.567-45.422 32.45-114.342 37.72-169.78zm-63.44 67.75 9.69 176.187-166.876 58.5-2.78-50.47c48.082 9.04 83.113-8.624 104.342-38.25-27.814-3.42-46.384-30.984-43.094-60.28 3.174-28.257 24.982-51.253 51.72-52.313a49.746 49.746 0 0 1 5.437.094c2.458.176 4.837.56 7.155 1.095a152.499 152.499 0 0 0-5.5-20.563l39.906-14zM117.78 174.5l29.657 19.78 10.47 190.814-43.407 64.812-.188-3.656c24.146-101.32 36.74-217.525 3.47-271.75zm172.095 22.625c-13.068-.123-26.546 12.068-28.5 29.47-2.017 17.96 8.33 31.076 21.78 32.03 13.452.954 27.765-11.444 29.783-29.406 2.017-17.963-8.363-31.08-21.813-32.032-.42-.03-.828-.06-1.25-.063zm64.156 134.97 49.283 32.874-254.938 88.81c48.305-26.555 103.147-64.172 135.594-97.124l70.06-24.562z"/></svg>

<svg xmlns="http://www.w3.org/2000/svg" viewBox="0 0 512 512"><path d="M0 0h512v512H0z"/>
    <!-- Outer silhouette/outline of the gem -->
    <path fill="#fff" data-channel="body" d="M413.47 20.25L402 24.25 84.97 134.72 78.437 137 78.843 143.875 97.78 478.47 98.47 490.594 109.938 486.594 426.968 376.124 433.468 373.844 433.094 366.938 414.156 32.375 413.469 20.25Z"/>
    <!-- Top facet - upper left -->
    <path fill="#fff" data-channel="facet" d="M381.937 50.625L338.562 115.375 157.812 178.75 121.032 154.22C195.252 166.735 317.852 101.73 378.156 51.938L381.936 50.625Z"/>
    <!-- Right side facet -->
    <path fill="#fff" data-channel="facet" d="M397.969 70.313L413.749 349.438 364.436 316.563 360.249 240.093C378.816 194.671 392.699 125.751 397.969 70.313Z"/>
    <!-- Center main facet -->
    <path fill="#fff" data-channel="detail" d="M334.529 138.063L344.219 314.25 177.343 372.75 174.563 322.28C222.645 331.32 257.676 313.656 278.905 284.03 251.091 280.61 232.521 253.046 235.811 223.75 238.985 195.493 260.793 172.497 287.531 171.437A49.746 49.746 0 0 1 292.968 171.531C295.426 171.707 297.805 172.091 300.123 172.626A152.499 152.499 0 0 0 294.623 152.063L334.529 138.063Z"/>
    <!-- Left side facet -->
    <path fill="#fff" data-channel="facet" d="M117.78 174.5L147.437 194.28 157.907 385.094 114.5 449.906 114.312 446.25C138.458 344.93 151.052 228.725 117.782 174.5Z"/>
    <!-- Center highlight/reflection -->
    <path fill="#fff" data-channel="highlight" d="M289.875 197.125C276.807 197.002 263.329 209.193 261.375 226.595 259.358 244.555 269.705 257.671 283.155 258.625 296.607 259.579 310.92 247.181 312.938 229.219 314.955 211.256 304.575 198.139 291.125 197.187 290.705 197.157 290.297 197.127 289.875 197.124Z"/>
    <!-- Bottom facet -->
    <path fill="#fff" data-channel="facet" d="M354.031 332.095L403.314 364.969 148.376 453.779C196.681 427.224 251.523 389.607 283.97 356.655L354.03 332.093Z"/></svg>
